assets/images/logo/favicon.svg

<svg fill="none" height="48" viewBox="0 0 49 48" width="49" xmlns="http://www.w3.org/2000/svg"><path d="m24.5 48c13.2548 0 24-10.7452 24-24s-10.7452-24-24-24-24 10.7452-24 24 10.7452 24 24 24z" fill="#3056d3"/><path clip-rule="evenodd" d="m15.5 20.9998c1.1998-4.7998 4.2002-7.2 9-7.2 7.2 0 8.1 5.4 11.7 6.3 2.4002.6002 4.5-.2998 6.3-2.7-1.1998 4.7998-4.2002 7.2-9 7.2-7.2 0-8.1-5.4-11.7-6.3-2.4002-.6002-4.5.2998-6.3 2.7zm-9 10.8c1.19981-4.7998 4.2002-7.2 9-7.2 7.2 0 8.1 5.4 11.7 6.3 2.4002.6002 4.5-.2998 6.3-2.7-1.1998 4.7998-4.2002 7.2-9 7.2-7.2 0-8.1-5.4-11.7-6.3-2.4002-.6002-4.5.2998-6.3 2.7z" fill="#fff" fill-rule="evenodd"/></svg>

<svg width="49" height="48" viewBox="0 0 49 48" fill="none" xmlns="http://www.w3.org/2000/svg">
<path d="M24.5 48C37.7548 48 48.5 37.2548 48.5 24C48.5 10.7452 37.7548 0 24.5 0C11.2452 0 0.5 10.7452 0.5 24C0.5 37.2548 11.2452 48 24.5 48Z" fill="#3056D3"/>
<path fill-rule="evenodd" clip-rule="evenodd" d="M15.5 20.9998C16.6998 16.2 19.7002 13.7998 24.5 13.7998C31.7 13.7998 32.6 19.1998 36.2 20.0998C38.6002 20.7 40.7 19.8 42.5 17.3998C41.3002 22.1996 38.2998 24.5998 33.5 24.5998C26.3 24.5998 25.4 19.1998 21.8 18.2998C19.3998 17.6996 17.3 18.5996 15.5 20.9998ZM6.5 31.7998C7.69981 27 10.7002 24.5998 15.5 24.5998C22.7 24.5998 23.6 29.9998 27.2 30.8998C29.6002 31.5 31.7 30.6 33.5 28.1998C32.3002 32.9996 29.2998 35.3998 24.5 35.3998C17.3 35.3998 16.4 29.9998 12.8 29.0998C10.3998 28.4996 8.3 29.3996 6.5 31.7998Z" fill="white"/>
</svg>
